build/img/icon__profile.svg

<svg width="27" height="27" viewBox="0 0 27 27" fill="none" xmlns="http://www.w3.org/2000/svg">
<path d="M24.6865 20.7617C24.65 20.2355 24.5763 19.6616 24.4677 19.0556C24.3581 18.4451 24.217 17.8679 24.0481 17.3403C23.8734 16.795 23.6363 16.2566 23.3428 15.7406C23.0385 15.205 22.6809 14.7386 22.2797 14.3548C21.86 13.9534 21.3463 13.6306 20.7522 13.3951C20.1602 13.1609 19.5041 13.0423 18.8023 13.0423C18.5267 13.0423 18.2601 13.1553 17.7453 13.4905C17.4285 13.6971 17.0579 13.9361 16.6443 14.2004C16.2906 14.4257 15.8115 14.6369 15.2196 14.828C14.6422 15.0149 14.056 15.1096 13.4771 15.1096C12.8987 15.1096 12.3124 15.0149 11.7346 14.828C11.1434 14.6371 10.6641 14.4259 10.311 14.2006C9.90129 13.9387 9.5305 13.6998 9.20895 13.4903C8.69458 13.1551 8.42802 13.0421 8.1524 13.0421C7.45038 13.0421 6.79449 13.1609 6.20267 13.3953C5.609 13.6304 5.09505 13.9532 4.67503 14.3551C4.27375 14.739 3.91615 15.2052 3.6121 15.7406C3.31897 16.2566 3.08167 16.7948 2.90698 17.3405C2.73827 17.8681 2.59717 18.4451 2.48758 19.0556C2.37881 19.6608 2.30527 20.2349 2.26881 20.7623C2.23297 21.2779 2.21484 21.8145 2.21484 22.3567C2.21484 23.7661 2.66288 24.9071 3.54639 25.7485C4.41898 26.5789 5.57336 27 6.97762 27H19.9783C21.3821 27 22.5365 26.5789 23.4093 25.7485C24.293 24.9077 24.7411 23.7663 24.7411 22.3565C24.7409 21.8124 24.7225 21.2758 24.6865 20.7617ZM22.3184 24.6022C21.7418 25.151 20.9763 25.4177 19.9781 25.4177H6.97762C5.97917 25.4177 5.2137 25.151 4.63733 24.6024C4.07188 24.0641 3.79708 23.3294 3.79708 22.3567C3.79708 21.8507 3.81377 21.3512 3.84714 20.8717C3.87968 20.4012 3.94622 19.8843 4.04489 19.3351C4.14233 18.7928 4.26633 18.2838 4.41383 17.823C4.55534 17.3811 4.74836 16.9436 4.98772 16.5221C5.21617 16.1204 5.47902 15.7758 5.76906 15.4981C6.04035 15.2384 6.3823 15.0258 6.78522 14.8663C7.15787 14.7188 7.57665 14.6381 8.03128 14.6259C8.08669 14.6554 8.18536 14.7116 8.34521 14.8159C8.67048 15.0278 9.04539 15.2697 9.45985 15.5344C9.92704 15.8322 10.529 16.1013 11.2481 16.3334C11.9833 16.5711 12.7331 16.6918 13.4773 16.6918C14.2216 16.6918 14.9716 16.5711 15.7064 16.3336C16.4261 16.1011 17.0278 15.8322 17.4957 15.534C17.9198 15.2629 18.2842 15.028 18.6095 14.8159C18.7693 14.7118 18.868 14.6554 18.9234 14.6259C19.3782 14.6381 19.797 14.7188 20.1699 14.8663C20.5726 15.0258 20.9145 15.2386 21.1858 15.4981C21.4759 15.7756 21.7387 16.1202 21.9672 16.5223C22.2067 16.9436 22.4 17.3813 22.5413 17.8227C22.689 18.2842 22.8132 18.793 22.9104 19.3349C23.0089 19.8851 23.0756 20.4022 23.1082 20.8719V20.8723C23.1417 21.35 23.1586 21.8493 23.1588 22.3567C23.1586 23.3296 22.8838 24.0641 22.3184 24.6022Z" fill="#0B9EC7"/>
<path d="M13.3079 13.006C15.0947 13.006 16.6417 12.3652 17.9061 11.1008C19.1701 9.83659 19.8111 8.28979 19.8111 6.5028C19.8111 4.71642 19.1703 3.16941 17.9059 1.90482C16.6415 0.640845 15.0945 0 13.3079 0C11.5209 0 9.97411 0.640845 8.70992 1.90503C7.44574 3.16921 6.80469 4.71622 6.80469 6.5028C6.80469 8.28979 7.44574 9.8368 8.70992 11.101C9.97452 12.365 11.5215 13.006 13.3079 13.006ZM9.82888 3.02378C10.7989 2.05375 11.9368 1.58223 13.3079 1.58223C14.6788 1.58223 15.8169 2.05375 16.7871 3.02378C17.7572 3.994 18.2289 5.13212 18.2289 6.5028C18.2289 7.87389 17.7572 9.01179 16.7871 9.98202C15.8169 10.9522 14.6788 11.4238 13.3079 11.4238C11.9372 11.4238 10.7993 10.952 9.82888 9.98202C8.85865 9.012 8.38692 7.87389 8.38692 6.5028C8.38692 5.13212 8.85865 3.994 9.82888 3.02378Z" fill="#0B9EC7"/>
</svg>

<svg width="27" height="27" fill="none" xmlns="http://www.w3.org/2000/svg"><path d="M24.686 20.762a16.06 16.06 0 00-.218-1.706 13.45 13.45 0 00-.42-1.716 8.475 8.475 0 00-.705-1.6 6.035 6.035 0 00-1.063-1.385 4.691 4.691 0 00-1.528-.96 5.279 5.279 0 00-1.95-.353c-.275 0-.542.113-1.057.449-.317.206-.687.445-1.1.71-.354.225-.833.436-1.425.627a5.655 5.655 0 01-1.743.282 5.66 5.66 0 01-1.742-.282c-.592-.19-1.07-.402-1.424-.627-.41-.262-.78-.501-1.102-.71-.514-.336-.781-.449-1.057-.449-.702 0-1.358.119-1.95.353a4.685 4.685 0 00-1.527.96 6.03 6.03 0 00-1.063 1.386 8.488 8.488 0 00-.705 1.6 13.45 13.45 0 00-.42 1.715 15.95 15.95 0 00-.218 1.706 23.107 23.107 0 00-.054 1.595c0 1.41.448 2.55 1.331 3.392C4.42 26.578 5.573 27 6.978 27h13c1.404 0 2.558-.421 3.431-1.252.884-.84 1.332-1.982 1.332-3.392 0-.544-.018-1.08-.055-1.594zm-2.368 3.84c-.576.549-1.342.816-2.34.816h-13c-.999 0-1.764-.267-2.34-.816-.566-.538-.84-1.273-.84-2.245 0-.506.016-1.006.05-1.485.032-.47.098-.988.197-1.537.097-.542.221-1.051.369-1.512a6.91 6.91 0 01.574-1.3c.228-.403.491-.747.781-1.025.271-.26.613-.472 1.016-.632a3.642 3.642 0 011.246-.24c.056.03.154.086.314.19.325.212.7.454 1.115.718.467.298 1.069.567 1.788.8a7.24 7.24 0 002.23.358c.744 0 1.494-.12 2.228-.358.72-.233 1.322-.502 1.79-.8.424-.271.788-.506 1.114-.718.16-.104.258-.16.313-.19.455.012.874.093 1.247.24.403.16.744.373 1.016.632.29.278.553.622.781 1.024.24.422.433.86.574 1.3.148.462.272.971.37 1.513.098.55.165 1.067.197 1.537.034.478.05.977.05 1.485 0 .973-.274 1.707-.84 2.245zm-9.01-11.596c1.787 0 3.334-.64 4.598-1.905 1.264-1.264 1.905-2.811 1.905-4.598s-.64-3.334-1.905-4.598C16.642.64 15.095 0 13.308 0S9.974.64 8.71 1.905C7.446 3.169 6.805 4.716 6.805 6.503s.64 3.334 1.905 4.598c1.265 1.264 2.811 1.905 4.598 1.905zm-3.48-9.982c.97-.97 2.109-1.442 3.48-1.442 1.37 0 2.509.472 3.48 1.442.97.97 1.44 2.108 1.44 3.479 0 1.37-.47 2.509-1.44 3.479-.971.97-2.11 1.442-3.48 1.442s-2.509-.472-3.48-1.442c-.97-.97-1.441-2.108-1.441-3.48 0-1.37.472-2.508 1.442-3.478z" fill="#0B9EC7"/></svg>
